!!!COM: Johanna Kinkel
!!!CNT: Deutsch
!!!TXO: Deutsch
!!!OTL: Die Zigeuner
!!!LYR: Geibel
!!!OPR: Sechs Lieder
!!!OPS: Op. 7
!!!ONM: No. 6
!!!ENC: Ben Fuhrman
!!!YOR: Johanna Kinkel: Lieder, volume 1 Poetry by Geibel and Goethe
!!!YOR: Bryn Mawr, Fildegard Publishing CO, 2000
!!!ODT: 1837
!!NB: Only vocal melody encoded.
!!NB: First instance of melodic material only encoded.
!!created: 2/19/10 4:59PM
!!proofed and posted: 2/19/10 4:59PM
**kern	**silbe
*clef G2	*
*k[f#]	*
*M6/8	*
*MM[Allegro molto]	*
{8B	{Im
=1	=1
8e	Schat-
8e	-ten
8e	des
8g	Wal-
8g	-des,
8g	im
=2	=2
8b	Bu-
8b	-chen
8b	ge-
4b	-zweig,
8b	da
=3	=3
8cc	regt
8b	sich's
8cc	und
8b	ra-
8a	-schelt's
8b	und
=4	=4
8cc	flu2-
8b	-stert's
8cc	zug-
4b}	-leich,}
{8g	{es
=5	=5
8cc	fla-
8cc	-ckern
8cc	die
8ee	Flam-
8cc	-men,
8cc	es
=6	=6
8.b	gau-
16cc	-kelt
8dd	der
4cc	Schein
8cc	um
=7	=7
8.b	bun-
16cc	-te
8b	Ge-
8.a	-stal-
16b	-ten,
8a	um
=8	=8
8.g#	Laub
16f#	und
8g#	Ge-
4a}	-stein.}
{8a	{Das
=9	=9
4.a	ist
4a	der
8a	Zi-
=10	=10
4.cc	geu-
4a	-ner
8a	le-
=11	=11
4.a	-ben-
4a	-di-
8a	-ge
=12	=12
4.cc}	Schaar,}
4r	.
{8cc	{mit
=13	=13
4.cc	blit-
4cc	-zen-
8cc	-den
=14	=14
4.b	Au-
4b	-gen
8b	und
=15	=15
4.a	na2cht-
4a	-li-
8a	-chem
=16	=16
[4.g	Haar,
4g]}	|}
{8e	{ge-
=17	=17
4.d#	-sa2ugt
4f#	an
8d#	des
=18	=18
4.e	Ni-
4g	-les
8e	ge-
=19	=19
4.f#	-hei-
4a	-lig-
8f#	-ter
=20	=20
4.g}	Fluth,}
4r	.
{8fn	{ge-
=21	=21
4.e	-bra2unt
4g	von
8g	His-
=22	=22
4.cc	-pa-
4cc	-ni-
8cc	-ens
=23	=23
[4.b	su2d
8b]	|
8a	li-
8f#	-cher
=24	=24
4.e}	Gluth.}
4r	.
8r	.
==	==
*-	*-
